X:84
T:Irish Highland
B:NFID.108a
084irish_h
S:SD
N:NFID has only the low A at the end of each phrase.
L:1/8
M:C
R:hornpipe
Q:280
K:A=G
A2AB c2e2|dcBA G2D2|A2AB c2BA|B2e2 [A4A,4]|
A2AB c2A2|B2BA G2E2|e2ed c2BA|1 B2e2 [A4A,4]:|\
[2 B2e2 [e4A4]||
%B
A3B c2A2|B2BA G2E2|A2AB c2BA|B2e2 [A4A,4]|
A3B c2A2|B2BA G2E2|e2ed c2BA|B2e2 [A4A,4]|
%C
e2ed c2A2|B2BA G2E2|e2ed c2BA|B2e2 [A4A,4]|
[e3A3]d c2A2|B2BA G2[B,2E2]|e2ed c2BA|B2e2 [A4A,4]||

%%%

